!!!!SEGMENT: pl-gd--ee-1638--003-008_marenzio-luca--madrigali-a-quatro-voci-apollo-s-ancor-viue-il-bel-desio.krn
!!!cenid: 15xx:982
!!!COM: Marenzio, Luca
!!!COM-rismID: pe30003955
!!!CDT: ~1553-1599/08/22
!!!CNT: Italian
!!!GTL: Madrigali a quatro voci
!!!OTL: Apollo s’ancor viue il bel desio
!!!OMV: 008
!!!PDT: 1587
!!!AGN:
!!!SMS-siglum: PL-GD
!!!SMS-shelfmark: Ee 1638
!!!SMS-shelfwork: 003-008 G
!!!SMS-variant:
!!!SMS-altvar:
!!!NIFC-rismSourceID: 990039322
!!!NIFC-islandoraID: pl-gd:57883
!!!URL-pdf-islandora: https://repozytorium.nifc.pl/islandora/object/pl-gd%3A57883/datastream/PDF/view
!!!URL-scan: https://polish.musicsources.pl/pl/lokalizacje/galeria/klocki-introligatorskie/655 @EN{Scan on Polish Music Sources Website} @PL{Skany w portalu Dziedzictwo Muzyki Polskiej w otwartym dostępie}
!!!ONB-nifc: UWAGA: zbiór na stronach: Canto: s. 637-653, Alto: s. do 486-501, Tenore: s. do 334-349, Bassus: s. do 182-197. Uwaga: utwory podzielone wg tytułów w spisach treści dostępnych na końcu każdej księgi głosowej.
!!!AIN: 1 alto 1 bass 1 soprn 1 tenor
!!!key: G
**kern	**text	**kern	**text	**kern	**text	**kern	**text
*part4	*part4	*part3	*part3	*part2	*part2	*part1	*part1
*staff4	*staff4	*staff3	*staff3	*staff2	*staff2	*staff1	*staff1
*I"BASSO	*	*I"TENORE	*	*I"ALTO	*	*I"CANTO	*
*I'B	*	*I'T	*	*I'A	*	*I'S	*
*ICvox	*	*ICvox	*	*ICvox	*	*ICvox	*
*Ibass	*	*Itenor	*	*Ialto	*	*Isoprn	*
*clefC4	*	*clefC3	*	*clefC2	*	*clefG2	*
*k[]	*	*k[]	*	*k[]	*	*k[]	*
*G:	*	*G:	*	*G:	*	*G:	*
*M2/1	*	*M2/1	*	*M2/1	*	*M2/1	*
*met(C)	*	*met(C)	*	*met(C)	*	*met(C)	*
=1-	=1-	=1-	=1-	=1-	=1-	=1-	=1-
*xywh-pl-gd--ee1638-8o--0186:1190,541,3393,853	*	*xywh-pl-gd--ee1638-8o--0338:1154,539,3368,824	*	*xywh-pl-gd--ee1638-8o--0490:1130,529,3363,809	*	*xywh-pl-gd--ee1638-8o--0642:1201,421,3403,915	*
0r	.	0r	.	1r	.	1cc	A-
.	.	.	.	1g	A-	1gg	-Pol-
=2-	=2-	=2-	=2-	=2-	=2-	=2-	=2-
1r	.	1c	A-	1cc	-Pol-	1ee	-lo
1G	A-	1g	-Pol-	1b	-lo	4r	.
.	.	.	.	.	.	2dd\	s'an-
.	.	.	.	.	.	4dd\	-cor
=3-	=3-	=3-	=3-	=3-	=3-	=3-	=3-
1c	-Pol-	1e	-lo	4r	.	8ee\	vi-
.	.	.	.	.	.	8dd\	.
.	.	.	.	2g\	s'an-	8ee\	.
.	.	.	.	.	.	8ff\	.
.	.	.	.	.	.	4gg\	.
.	.	.	.	4g\	-cor	4gg\	-ue il
1A	-lo	4r	.	8a\	vi-	4ff\	bel
.	.	.	.	8g\	.	.	.
.	.	2c/	s'an-	8a\	.	4ff\	de
.	.	.	.	8b\	.	.	.
.	.	.	.	4cc\	.	2ee\	ſi-
.	.	4c/	-cor	4cc\	-ue il	.	.
=4-	=4-	=4-	=4-	=4-	=4-	=4-	=4-
4r	.	8d\	vi-	4b\	bel	1dd	-o
.	.	8c\	.	.	.	.	.
2D/	s'an-	8d\	.	4b\	de-	.	.
.	.	8e\	.	.	.	.	.
.	.	4f\	.	2a\	-ſi-	.	.
4D/	-cor	4f\	-ue il	.	.	.	.
8E/	vi-	4e\	bel	4.g\	-o	4r	.
8D/	.	.	.	.	.	.	.
8E/	.	4e\	de-	.	.	2g/	s'an-
8F/	.	.	.	8a\	.	.	.
!	!	!	!	!LO:SIC:v:t=custos b	!	!	!
4G/	.	1d\	-ſi-	2b\	.	.	.
!	!	!	!	!	!	!LO:SIC:v:t=custos a	!
4G/	-ue il	.	.	.	.	4g/	-cor
!	!	!	!	!LO:LB:g=original	!	!LO:LB:g=original	!
=5-	=5-	=5-	=5-	=5-	=5-	=5-	=5-
*	*	*	*	*xywh-pl-gd--ee1638-8o--0490:1016,1224,3466,685	*	*xywh-pl-gd--ee1638-8o--0642:1283,1203,3259,719	*
4F/	bel	.	.	4r	.	8a/	vi-
.	.	.	.	.	.	8g/	.
4F/	de-	.	.	4a\	il	8a/	.
.	.	.	.	.	.	8b/	.
2E/	-ſi-	2G/	-o	4g\	bel	4cc\	.
.	.	.	.	4g\	de-	4cc\	-ue il
1D	-o	4r	.	4f#X\	-ſi-	4b/	bel
.	.	2d\	s'an-	2g\	.	4b/	de-
.	.	.	.	.	.	4.a/	-ſi-
!	!	!LO:SIC:v:t=custos e	!	!	!	!	!
.	.	4d\	-cor	4f#X\	.	.	.
.	.	.	.	.	.	8b/	.
!	!	!LO:LB:g=original	!	!	!	!	!
=6-	=6-	=6-	=6-	=6-	=6-	=6-	=6-
!LO:SIC:v:t=custos A	!	!	!	!	!	!	!
*xywh-pl-gd--ee1638-8o--0338:1184,1262,3368,661	*	*	*	*	*	*	*
1r	.	8e\	vi-	1g	-o	4cc\	.
.	.	8d\	.	.	.	.	.
.	.	8e\	.	.	.	8b/	.
.	.	8f\	.	.	.	8a/	.
.	.	4g\	.	.	.	8b/	.
.	.	.	.	.	.	8cc\	.
.	.	4g\	-ue il	.	.	8dd\	.
.	.	.	.	.	.	8b/	.
!LO:LB:g=original	!	!	!	!	!	!	!
*xywh-pl-gd--ee1638-8o--0186:1273,1280,3330,603	*	*	*	*	*	*	*
1A	A-	4f\	bel	1r	.	4cc\	.
.	.	4f\	de-	.	.	2dd\	.
.	.	2e\	-ſi-	.	.	.	.
.	.	.	.	.	.	4cc#X\	.
=7-	=7-	=7-	=7-	=7-	=7-	=7-	=7-
1d	-pol-	2f\	-o	4r	.	1dd	-o
.	.	.	.	4fny\	Che	.	.
.	.	4r	.	4.a\	t'in-	.	.
.	.	4d\	Che	.	.	.	.
.	.	.	.	8b\	-fiã(m)-	.	.
2c\	-lo	4.e\	t'in-	4cc\	-ma-	4r	.
.	.	.	.	4c/	-ua	4g/	Che
.	.	8f\	-fiam-	.	.	.	.
4r	.	1g\	-ma-	4r	.	4.b/	t'in-
2G/	s'an-	.	.	2d/	s'an-	.	.
!	!	!	!	!	!	!LO:SIC:v:t=custos dd	!
.	.	.	.	.	.	8ccny\	-fiam-
!	!	!	!	!	!	!LO:LB:g=original	!
=8-	=8-	=8-	=8-	=8-	=8-	=8-	=8-
*	*	*	*	*	*	*xywh-pl-gd--ee1638-8o--0642:1201,1758,3382,678	*
.	.	.	.	.	.	2dd\	-ma-
4G/	-cor	.	.	4B/	-cor	.	.
8A/	vi-	2e\	-ua	8c/	ui-	4cc\	-ua
8G/	.	.	.	8B/	.	.	.
*	*	*	*	*	*	*	*ij
8A/	.	.	.	8c/	.	4cc\	Che
8B\	.	.	.	8d/	.	.	.
4c\	-ue il	2r	.	4e/	.	4.g/	t'in-
4c\	bel	.	.	4e/	-ue il	.	.
.	.	.	.	.	.	8a/	-fiam-
4B\	de-	4r	.	4d/	bel	2b/	-ma-
!	!	!	!	!LO:SIC:v:t=custos c	!	!	!
*	*	*	*ij	*	*	*	*
4B\	-ſi-	4d\	Che	4G/	de-	.	.
!	!	!	!	!LO:LB:g=original	!	!	!
=9-	=9-	=9-	=9-	=9-	=9-	=9-	=9-
*	*	*	*	*xywh-pl-gd--ee1638-8o--0490:1120,1774,3394,643	*	*	*
2A/	-o	4.e\	t'in-	2c/	-ſi-	2cc\	-va
.	.	8f\	-fiam-	.	.	.	.
4G/	Che	2g\	-ma-	2d/	-o	4r	.
*	*	*	*	*	*	*	*Xij
4G/	t'in-	.	.	.	.	4b/	Che
!	!	!LO:SIC:v:t=custos c	!	!	!	!	!
4.A/	-fia(m)-	1e	-ua	2r	.	4.cc\	t'in-
8B\	-ma-	.	.	.	.	8dd\	-fiam-
2c\	-ua	.	.	4r	.	2ee\	-ma-
.	.	.	.	4g\	Che	.	.
=10-	=10-	=10-	=10-	=10-	=10-	=10-	=10-
*	*	*xywh-pl-gd--ee1638-8o--0338:1276,1842,3236,661	*	*	*	*	*
2F/	Che	4r	.	4.a\	t'in-	4ff\	-ua
*	*	*	*Xij	*	*	*	*ij
.	.	2c/	Che	.	.	4cc\	Che
.	.	.	.	8b\	-fiam-	.	.
2C/	t'in-	.	.	2cc\	-ma-	4.ee\	t'in-
.	.	4.e\	t'in-	.	.	.	.
.	.	.	.	.	.	8ff\	-fiam-
4.E/	-fiãm-	.	.	1b	-ua	2gg\	-ma-
.	.	8f\	-fiam-	.	.	.	.
.	.	2g\	-ma-	.	.	.	.
8F/	-ma-	.	.	.	.	.	.
!LO:SIC:v:t=custos D	!	!	!	!	!	!	!
2G/	.	.	.	.	.	2dd\	-va
.	.	2d\	-ua	.	.	.	.
*	*	*	*	*	*	*	*Xij
!v	!	!	!	!	!	!	!
=11-	=11-	=11-	=11-	=11-	=11-	=11-	=11-
*xywh-pl-gd--ee1638-8o--0186:1159,1821,3413,603	*	*	*	*	*	*	*
2D/	-ua	.	.	4a\	le	2dd\	le
.	.	4f\	le	4A/	The-	.	.
4A/	le	4f\	The-	8c/	-ſa	4cc\	The-
.	.	.	.	8d/	.	.	.
4A/	The-	2e\	-ſa-	8e\	.	2cc\	-ſa-
.	.	.	.	8f\	.	.	.
2G/	-fa-	.	.	2.g\	.	.	.
!	!	!	!	!	!	!LO:SIC:v:t=custos ee	!
.	.	4d\	-li-	.	.	4b/	-li
!	!	!	!	!	!	!LO:LB:g=original	!
*	*	*	*	*	*	*xywh-pl-gd--ee1638-8o--0642:1242,2251,3331,730	*
2E/	-lche on-	2.g\	-che on-	.	.	2.ee\	Che
.	.	.	.	4cc\	li-	.	.
=12-	=12-	=12-	=12-	=12-	=12-	=12-	=12-
2.G/	.	.	.	2.b\	-che	.	.
.	.	8f\	.	.	.	8dd\	on-
.	.	8e\	.	.	.	8cc\	.
.	.	4d\	.	.	.	4b/	.
8F/	.	4e\	.	8a\	on-	4cc\	.
8E/	.	.	.	8g\	.	.	.
4D/	.	4f\	.	4a\	.	4dd\	.
4E/	.	4g\	.	4g\	.	8cc\	.
.	.	.	.	.	.	8b\	.
4F/	.	4a\	.	4f\	.	4a/	.
4G/	.	8g\	.	8e\	.	4b/	.
!	!	!	!	!LO:SIC:v:t=custos a	!	!	!
.	.	8f\	.	8d/	.	.	.
!	!	!	!	!LO:LB:g=original	!	!	!
=13-	=13-	=13-	=13-	=13-	=13-	=13-	=13-
*	*	*	*	*xywh-pl-gd--ee1638-8o--0490:1026,2293,3498,705	*	*	*
1A	.	4e\	.	1a	.	4cc#X\	.
.	.	4d\	.	.	.	2dd\	.
!	!	!LO:SIC:v:t=custos d	!	!	!	!	!
.	.	2e\	.	.	.	.	.
.	.	.	.	.	.	4cc#X\	.
!	!	!LO:LB:g=original	!	!	!	!	!
*	*	*xywh-pl-gd--ee1638-8o--0338:1093,2391,3510,620	*	*	*	*	*
2D/	-de	2d\	-de	1a	-de	1dd	-de
2.d\	E	2f\	E	.	.	.	.
=14-	=14-	=14-	=14-	=14-	=14-	=14-	=14-
.	.	2e\	ſe	2r	.	2r	.
2c\	ſe	.	.	.	.	.	.
.	.	2d\	non	2g\	E	2.dd\	E
4B\	non	.	.	.	.	.	.
2c\	hai	2g\	hai	2e/	ſe	.	.
.	.	.	.	.	.	2ccny\	ſe
4r	.	4r	.	2d/	non	.	.
4G/	l'a-	4g\	l'a-	.	.	4b/	non
=15-	=15-	=15-	=15-	=15-	=15-	=15-	=15-
4A/	-ma-	4e\	-ma-	2c/	hai	2cc\	hai
4F/	-te	4f\	-te	.	.	.	.
4G/	chi-	4e\	chi-	2r	.	2r	.
8F/	-o-	8d\	-o-	.	.	.	.
!LO:SIC:v:t=custos F	!	!	!	!	!	!	!
8E/	.	8c\	.	.	.	.	.
!LO:LB:g=original	!	!	!	!	!	!	!
*xywh-pl-gd--ee1638-8o--0186:1211,2342,3424,634	*	*	*	*	*	*	*
4F/	.	4d\	.	2r	.	1r	.
4F/	-me	4c/	-me	.	.	.	.
4E/	bion-	4c/	bion-	2.g\	E	.	.
8D/	.	8B/	.	.	.	.	.
8C/	.	8A/	.	.	.	.	.
=16-	=16-	=16-	=16-	=16-	=16-	=16-	=16-
2D/	.	2B/	.	.	.	2r	.
.	.	.	.	2f\	ſe	.	.
4C/	-de	2c/	-de	.	.	2.gg\	E
4c\	E	.	.	4e/	non	.	.
2B-X\	ſe	4r	.	4.f\	ha-	.	.
.	.	2d\	E	.	.	2ff\	ſe
.	.	.	.	8g\	.	.	.
2A/	non	.	.	2a\	-i	.	.
!	!	!	!	!	!	!LO:SIC:v:t=custos ff	!
.	.	2c/	ſe	.	.	4ee\	non
!	!	!	!	!	!	!LO:LB:g=original	!
=17-	=17-	=17-	=17-	=17-	=17-	=17-	=17-
*	*	*	*	*	*	*xywh-pl-gd--ee1638-8o--0642:1159,2786,3382,668	*
2D/	hai	.	.	4r	.	4ff\	hai
.	.	4B/	non	4d/	l'a-	4dd\	l'a-
!	!	!LO:SIC:v:t=custos g	!	!	!	!	!
2r	.	2c/	hai	4g\	-ma-	4ee\	-ma-
.	.	.	.	4e/	-te	4cc\	-te
!	!	!LO:LB:g=original	!	!	!	!	!
*	*	*xywh-pl-gd--ee1638-8o--0338:1245,2921,3317,641	*	*	*	*	*
1r	.	4r	.	4f\	chi-	4dd\	chi-
.	.	4g\	l'a-	8e/	-o-	8cc\	-o-
.	.	.	.	8d/	.	8b\	.
.	.	4a\	-ma-	4c/	.	4cc\	.
.	.	4f\	-te	4d/	-me	4b/	-me
=18-	=18-	=18-	=18-	=18-	=18-	=18-	=18-
2r	.	4g\	chi-	2e/	bion-	4b/	bion-
.	.	8f\	-o-	.	.	8a/	.
.	.	8e\	.	.	.	8g/	.
!	!	!	!	!LO:SIC:v:t=custos B	!	!	!
4r	.	4f\	.	2d/	-de	2a/	.
4D/	Vol-	4f\	-me	.	.	.	.
!	!	!	!	!LO:LB:g=original	!	!	!
*	*	*	*	*xywh-pl-gd--ee1638-8o--0490:1088,2875,3414,633	*	*	*
2G/	-gen-	4e\	bion-	4B/	Vol-	1g	-de
.	.	8d\	.	2c/	-gen-	.	.
.	.	8c\	.	.	.	.	.
2G/	-do	2d\	.	.	.	.	.
.	.	.	.	4B/	-do	.	.
=19-	=19-	=19-	=19-	=19-	=19-	=19-	=19-
1C	gl'an-	2c/	-de	1e	gl'an-	1r	.
.	.	2g\	Vol-	.	.	.	.
1G	-ni	2g\	-gen-	1d	-ni	4b/	Vol-
.	.	.	.	.	.	2cc\	-gen-
.	.	2g\	-do	.	.	.	.
.	.	.	.	.	.	4b/	-do
=20-	=20-	=20-	=20-	=20-	=20-	=20-	=20-
2A/	già	1c	gl'an-	2r	.	1ee	gl'an-
1c	poſt'	.	.	1g	già	.	.
.	.	2g\	-ni	.	.	1dd	-ni
4Bny\	.	1G/	già	1b#X\	poſt'	.	.
4A/	.	.	.	.	.	.	.
=21-	=21-	=21-	=21-	=21-	=21-	=21-	=21-
2G/	.	.	.	.	.	2b/	già
4F/	in	2A/	poſt'	1a	in	1dd	poſt'
!LO:SIC:v:t=custos D	!	!	!	!	!	!	!
4E/	o-	.	.	.	.	.	.
!LO:LB:g=original	!	!	!	!	!	!	!
*xywh-pl-gd--ee1638-8o--0186:1294,2873,3278,666	*	*	*	*	*	*	*
0D	-bli-	2B/	in	.	.	.	.
.	.	2c/	ob-	1g\	ob-	4cc\	in
.	.	.	.	.	.	4b/	ob-
=22-	=22-	=22-	=22-	=22-	=22-	=22-	=22-
.	.	1d	-li-	.	.	1a	-li-
.	.	.	.	2f#X\	-li-	.	.
!	!	!LO:SIC:v:t=custos e	!	!	!	!LO:SIC:v:t=custos cc	!
1G	-o	1d	-o	1g	-o	1b	-o
!	!	!LO:LB:g=original	!	!	!	!LO:LB:g=original	!
=23-	=23-	=23-	=23-	=23-	=23-	=23-	=23-
*	*	*xywh-pl-gd--ee1638-8o--0338:1133,3501,3439,620	*	*	*	*xywh-pl-gd--ee1638-8o--0642:1221,3352,3352,658	*
2r	.	2r	.	2r	.	2r	.
1c	Dal	1e	Dal	1g	Dal	1cc	Dal
1F/	pi-	1c\	pi-	1fny\	pig-	1a/	pi-
=24-	=24-	=24-	=24-	=24-	=24-	=24-	=24-
2A/	-gro	2c/	-gro	2e/	-ro	2a/	-gro
1E	ge-	1B	ge-	1e	ge-	1g#X	ge-
=25-	=25-	=25-	=25-	=25-	=25-	=25-	=25-
1E	-lo	1B	-lo	1e	-lo	1g#yX	-lo
4r	.	4r	.	4r	.	4r	.
2A/	e	2c/	e	2e/	e	2a/	e
4G/	dal	4d\	dal	4g\	dal	4b/	dal
=26-	=26-	=26-	=26-	=26-	=26-	=26-	=26-
1c	te(m)-	1e	tem-	2g\	tem-	1cc	tem-
.	.	.	.	2.a\	-po	.	.
1.d	-po aſ-	1.f	-po aſ-	.	.	2.a/	-po
.	.	.	.	4g\	a-	.	.
.	.	.	.	4f\	.	.	.
!	!	!	!	!LO:SIC:v:t=custos d	!	!	!
.	.	.	.	4e/	.	4gny/	a-
!	!	!	!	!LO:LB:g=original	!	!	!
=27-	=27-	=27-	=27-	=27-	=27-	=27-	=27-
*	*	*	*	*xywh-pl-gd--ee1638-8o--0490:1192,3425,3352,643	*	*	*
.	.	.	.	1.d	.	1f	.
2c\	-pro e-	2e\	-pro e-	.	.	.	.
0B-X	-ri-	0d	-ri-	.	.	2g/	-ſpro
.	.	.	.	2e/	-ſpro e	1a/	e-
=28-	=28-	=28-	=28-	=28-	=28-	=28-	=28-
.	.	.	.	2f\	ri-	.	.
.	.	.	.	4e/	-o	2g/	-ri-
.	.	.	.	4d/	.	.	.
2A/	-o	2c#X/	-o	2e/	.	2a/	-o
2A/	Che	2c#/	Che	2e/	Che	2a/	Che
=29-	=29-	=29-	=29-	=29-	=29-	=29-	=29-
0G	du-	1d	du-	2g\	du-	2b/	du-
.	.	.	.	2g\	-ra	2b/	-ra
.	.	2B/	-ra	4r	.	4r	.
.	.	.	.	4.b#X\	quã(n)-	4.dd\	quã(n)-
.	.	4r	.	.	.	.	.
.	.	.	.	8bny\	-to'l	8dd\	-to'l
!	!	!	!	!	!	!LO:SIC:v:t=custos b	!
.	.	4.d\	qua(n)-	4bny\	tuo	4dd\	tuo
!	!	!	!	!	!	!LO:LB:g=original	!
=30-	=30-	=30-	=30-	=30-	=30-	=30-	=30-
*	*	*	*	*	*	*xywh-pl-gd--ee1638-8o--0642:1231,3855,3352,719	*
0G	-ra	.	.	1g	vi-	2b/	vi-
.	.	8d\	-to'l	.	.	.	.
.	.	4d\	tuo	.	.	.	.
!	!	!LO:SIC:v:t=custos G	!	!	!	!	!
.	.	2B/	vi-	.	.	4g/	-ſo
.	.	.	.	.	.	4dd\	s'aſ-
!	!	!LO:LB:g=original	!	!	!	!	!
*	*	*xywh-pl-gd--ee1638-8o--0338:1194,4030,3419,641	*	*	*	*	*
.	.	4G/	-ſo	2d/	-ſo	8b\	-con-
.	.	.	.	.	.	8cc\	.
.	.	4d\	s'aſ-	.	.	8dd\	.
.	.	.	.	.	.	8b\	.
.	.	8B/	-con-	2g\	s'aſ-	4ee\	.
.	.	8cny\	.	.	.	.	.
.	.	8d\	.	.	.	4dd\	-de
.	.	8B/	.	.	.	.	.
=31-	=31-	=31-	=31-	=31-	=31-	=31-	=31-
0r	.	1e	.	8c/	-con-	4r	.
.	.	.	.	8d/	.	.	.
.	.	.	.	8e\	.	4g/	s'aſ-
.	.	.	.	8f\	.	.	.
.	.	.	.	8g\	.	8e/	-con-
.	.	.	.	8a\	.	8f/	.
.	.	.	.	8bny\	.	8g/	.
!	!	!	!	!LO:SIC:v:t=custos a	!	!	!
.	.	.	.	8g\	.	8e/	.
!	!	!	!	!LO:LB:g=original	!	!	!
*	*	*	*	*xywh-pl-gd--ee1638-8o--0490:1088,3923,3394,643	*	*	*
.	.	1d	-de	1a	.	4f#X/	.
.	.	.	.	.	.	2g/	.
.	.	.	.	.	.	4f#X/	.
=32-	=32-	=32-	=32-	=32-	=32-	=32-	=32-
2r	.	2r	.	2b\	-de	2g/	-de
2G/	Di-	2g\	Di-	4r	.	4r	.
.	.	.	.	4b\	Di-	4dd\	Di-
2.c\	-fen-	2.g\	-fen-	2.cc\	-fen-	2.ee\	-fen-
!LO:SIC:v:t=custos A	!	!	!	!	!	!LO:SIC:v:t=custos cc	!
4G/	-di hor	4g\	-di hor	4b\	-di hor	4dd\	-di hor
!LO:LB:g=original	!	!	!	!	!	!LO:LB:g=original	!
=33-	=33-	=33-	=33-	=33-	=33-	=33-	=33-
*xywh-pl-gd--ee1638-8o--0186:1107,3414,3455,634	*	*	*	*	*	*xywh-pl-gd--ee1638-8o--0642:1129,4452,3362,678	*
4.A/	l'ho-	4.e\	l'ho-	4.a\	l'ho-	4.cc\	l'ho-
8A/	-no-	8e\	-no-	8a\	-no-	8cc\	-no-
4A/	-ra-	4e\	-ra-	4a\	-ra-	4cc\	-ra-
4E/	-ta e	4e\	-te e	4g\	-ta e	4b/	-ta e
4F/	ſa-	4c/	ſa-	4f\	ſa-	4a/	ſa-
4G/	-cra	4B/	-cra	4d/	-cra	4g/	-cra
2D/	fron-	2A/	fron-	2d/	fron-	2f#X/	fron-
=34-	=34-	=34-	=34-	=34-	=34-	=34-	=34-
1D	-de	2A/	-de	4d/	-de	4f#yX/	-de O
.	.	.	.	4f#X\	O-	4a/	ue
.	.	4r	.	4f#\	-ue	4a/	tu
!	!	!LO:SIC:v:t=custos d	!	!	!	!	!
.	.	4d\	O-	4f#\	tu	4a/	pri-
!	!	!LO:LB:g=original	!	!	!	!	!
*	*	*xywh-pl-gd--ee1638-8o--0338:1042,4518,3510,671	*	*	*	*	*
2G/	O-	4d\	-ne	2g\	pri-	2b/	-ma
.	.	4d\	tu	.	.	.	.
4G/	-ue	2e\	pri-	2g\	-ma	2b/	e
4G/	tu	.	.	.	.	.	.
=35-	=35-	=35-	=35-	=35-	=35-	=35-	=35-
2A/	pri-	2c/	-ma	4r	.	2ee\	poi
.	.	.	.	4e/	e	.	.
2A/	-ma	4r	.	2a\	poi	4r	.
.	.	4e\	e	.	.	4cc\	e
4r	.	2d\	poi	4r	.	2ff\	poi
4d\	e	.	.	4a\	e	.	.
!	!	!	!	!LO:SIC:v:t=custos g	!	!	!
2c\	poi	4r	.	2cc\	poi	4r	.
.	.	4g\	e	.	.	4ee\	fu
!	!	!	!	!LO:LB:g=original	!	!	!
=36-	=36-	=36-	=36-	=36-	=36-	=36-	=36-
*	*	*	*	*xywh-pl-gd--ee1638-8o--0490:1182,4452,3352,705	*	*	*
4r	.	4.e\	poi	4r	.	1gg	in-
4C/	e	.	.	4g\	e	.	.
.	.	8f\	.	.	.	.	.
2c\	poi	2g\	.	2e/	poi	.	.
2A/	fu	4a\	fu	2e/	fu	4cc\	-ueſ-
.	.	4a\	in-	.	.	4cc\	-ca-
2E/	in-	4.g\	-ue-	4e/	in-	4.ee\	.
.	.	.	.	4.g\	-ue-	.	.
.	.	16f\	-ſca-	.	.	16dd\	.
!	!	!	!	!	!	!LO:SIC:v:t=custos b	!
.	.	16e\	.	.	.	16cc\	.
!	!	!	!	!	!	!LO:LB:g=original	!
=37-	=37-	=37-	=37-	=37-	=37-	=37-	=37-
*	*	*	*	*	*	*xywh-pl-gd--ee1638-8o--0642:4655,524,3372,832	*
4.G/	-ueſ-	4.d\	.	.	.	4.b/	.
.	.	.	.	16fny\	-ſca-	.	.
.	.	.	.	16e\	.	.	.
.	.	.	.	4.d/	.	.	.
16F/	-ca-	8e\	.	.	.	8cc\	.
16E/	.	.	.	.	.	.	.
4.D/	.	4.f\	.	.	.	4.dd\	.
.	.	.	.	8e/	.	.	.
.	.	.	.	4.f\	.	.	.
!LO:SIC:v:t=custos F	!	!	!	!	!	!	!
8E/	.	16e\	.	.	.	16cc\	.
!	!	!LO:SIC:v:t=custos c	!	!	!	!	!
.	.	16d\	.	.	.	16b\	.
!LO:LB:g=original	!	!LO:LB:g=original	!	!	!	!	!
*xywh-pl-gd--ee1638-8o--0186:1200,3966,3361,624	*	*xywh-pl-gd--ee1638-8o--0338:4614,590,3337,803	*	*	*	*	*
4.F/	.	4.c/	.	.	.	4.a/	.
.	.	.	.	16e/	.	.	.
.	.	.	.	16d/	.	.	.
.	.	.	.	4.c/	.	.	.
16E/	.	8d\	.	.	.	8b/	.
16D/	.	.	.	.	.	.	.
4.C/	.	4.e\	.	.	.	4.cc\	.
.	.	.	.	8d/	.	.	.
.	.	.	.	4.e/	.	.	.
8D/	.	16d\	.	.	.	16b/	.
.	.	16c\	.	.	.	16a/	.
=38-	=38-	=38-	=38-	=38-	=38-	=38-	=38-
4.E/	.	1B	.	.	.	4.g/	.
.	.	.	.	8f\	.	.	.
.	.	.	.	4.g\	.	.	.
8F/	.	.	.	.	.	8a/	.
2G/	.	.	.	.	.	4.b/	.
.	.	.	.	16f\	.	.	.
.	.	.	.	16e\	.	.	.
.	.	.	.	8d/	.	.	.
!	!	!	!	!LO:SIC:v:t=custos f	!	!	!
.	.	.	.	8e/	.	8cc\	.
!	!	!	!	!LO:LB:g=original	!	!	!
*	*	*	*	*xywh-pl-gd--ee1638-8o--0490:4605,550,3290,799	*	*	*
0D	-t'i-	2.A/	-t'i-	4.f\	.	1dd	.
.	.	.	.	8g\	.	.	.
.	.	.	.	4a\	.	.	.
.	.	8B/	.	2g\	-t'i-	.	.
.	.	8c/	.	.	.	.	.
=39-	=39-	=39-	=39-	=39-	=39-	=39-	=39-
.	.	1d	.	.	.	1a	-t'i-
.	.	.	.	8f#X\	.	.	.
.	.	.	.	8e\	.	.	.
.	.	.	.	2f#X\	.	.	.
00G	-o.	00d	-o.	00g	-o.	00b	-o.
==	==	==	===	==	=	==	==
*-	*-	*-	*-	*-	*-	*-	*-
!!!system-decoration: [(s1,s2,s3,s4)]
!!!ENC: Andrzej Gręziak
!!!END: 2022-06-27
!!!ENC: Jan Barakat
!!!END: 2022-07-11
!!!YEC: Copyright 2022 Narodowy Instytut Fryderyka Chopina (https://polishscores.org)
!!!YEM: Licence CC BY 4.0 (https://creativecommons.org/licenses/by/4.0)
!!!IIIF: https://repozytorium.nifc.pl/islandora/object/pl-gd%3A57883/datastream/IIIF/view
!!!ENC-IIIF: Zuzanna Daniec
!!!END-IIIF: 2022-09-01
